X:642
T:Eveleen's Bower
C:O'Carolan
B:O'Neill's 642
Z: 1997 by John Chambers <jc@trillian.mit.edu>
N:"Moderate"
M:C
L:1/8
K:A
E \
|A2AA AGFE|EAAB AGFE|A2AA Acec|BGE2 E2zd|
|cBcd ce2cA|AFED DCDE|FGAF BAGF|E2A2 A2z||
E \
|A2A2 AGFE|EAA2 AGFE|A2AA Acec|BGE2 E2zd|
|cBcd e2cA|AFED DCDE|FGAF BAGF|E2A2 A2z|]
